assets/2023/icons/json_dark.svg

<!-- Copyright 2000-2023 JetBrains s.r.o. and contributors. Use of this source code is governed by the Apache 2.0 license. -->
<svg width="16" height="16" viewBox="0 0 16 16" fill="none" xmlns="http://www.w3.org/2000/svg">
<path d="M3.98755 9.77751C3.99755 9.39251 3.87005 9.08501 3.60505 8.85501C3.34005 8.62501 2.98255 8.51001 2.53255 8.51001H2V7.43001H2.53255C2.98255 7.43001 3.34005 7.31501 3.60505 7.08501C3.87005 6.85501 3.99755 6.54751 3.98755 6.16251L3.95755 4.58C3.94755 4.06 4.05505 3.605 4.28005 3.215C4.51005 2.825 4.83755 2.525 5.26255 2.315C5.68755 2.105 6.18755 2 6.76255 2H7.5V3.005H6.77005C6.25005 3.005 5.83755 3.15 5.53255 3.44C5.23255 3.725 5.08505 4.1125 5.09005 4.6025L5.12005 6.17001C5.13005 6.68001 4.99255 7.09751 4.70755 7.42251C4.42255 7.74251 4.03755 7.92001 3.55255 7.95501C4.03755 8.04501 4.42255 8.25501 4.70755 8.58501C4.99255 8.91001 5.13005 9.30501 5.12005 9.77001L5.09005 11.5475C5.08005 11.9875 5.21255 12.3375 5.48755 12.5975C5.76755 12.8625 6.14505 12.995 6.62005 12.995H7.5V14H6.61255C6.07755 14 5.60755 13.9 5.20255 13.7C4.80255 13.505 4.49255 13.2225 4.27255 12.8525C4.05755 12.4875 3.95255 12.06 3.95755 11.57L3.98755 9.77751Z" fill="#B589EC"/>
<path d="M12.0145 9.77751C12.0045 9.39251 12.132 9.08501 12.397 8.85501C12.662 8.62501 13.0195 8.51001 13.4695 8.51001H14V7.43001H13.4695C13.0195 7.43001 12.662 7.31501 12.397 7.08501C12.132 6.85501 12.0045 6.54751 12.0145 6.16251L12.0445 4.58C12.0545 4.06 11.9445 3.605 11.7145 3.215C11.4895 2.825 11.1645 2.525 10.7395 2.315C10.3145 2.105 9.81455 2 9.23955 2H8.5V3.005H9.23205C9.75205 3.005 10.162 3.15 10.462 3.44C10.767 3.725 10.917 4.1125 10.912 4.6025L10.882 6.17001C10.872 6.68001 11.0095 7.09751 11.2945 7.42251C11.5795 7.74251 11.9645 7.92001 12.4495 7.95501C11.9645 8.04501 11.5795 8.25501 11.2945 8.58501C11.0095 8.91001 10.872 9.30501 10.882 9.77001L10.912 11.5475C10.922 11.9875 10.787 12.3375 10.507 12.5975C10.232 12.8625 9.85705 12.995 9.38205 12.995H8.5V14H9.38955C9.92455 14 10.392 13.9 10.792 13.7C11.197 13.505 11.507 13.2225 11.722 12.8525C11.942 12.4875 12.0495 12.06 12.0445 11.57L12.0145 9.77751Z" fill="#B589EC"/>
</svg>

<svg xmlns="http://www.w3.org/2000/svg" width="16" height="16" fill="none" viewBox="0 0 16 16"><path fill="#B589EC" d="M3.988 9.778q.015-.578-.383-.923-.397-.345-1.072-.345H2V7.43h.533q.675 0 1.072-.345.398-.345.383-.922l-.03-1.583q-.015-.78.322-1.365.345-.585.983-.9Q5.9 2 6.763 2H7.5v1.005h-.73q-.78 0-1.237.435-.45.427-.443 1.163l.03 1.567q.015.765-.412 1.253-.428.48-1.155.532.728.135 1.155.63.427.488.412 1.185l-.03 1.777q-.015.66.398 1.05.42.398 1.132.398h.88V14h-.887q-.802 0-1.41-.3-.6-.292-.93-.848-.322-.547-.315-1.282zm8.027 0q-.015-.578.382-.923.398-.345 1.072-.345H14V7.43h-.53q-.675 0-1.073-.345t-.383-.922l.03-1.583q.015-.78-.33-1.365a2.24 2.24 0 0 0-.975-.9Q10.103 2 9.24 2H8.5v1.005h.732q.78 0 1.23.435.457.427.45 1.163l-.03 1.567q-.015.765.412 1.253.427.48 1.156.532-.728.135-1.155.63-.428.488-.413 1.185l.03 1.777q.015.66-.405 1.05-.412.398-1.125.398H8.5V14h.89q.802 0 1.402-.3.607-.292.93-.848.33-.547.322-1.282z"/></svg>
